mini_fiction/frontend/src/images/markitup/header-3.svg

<svg viewBox="0 0 18 18">
  <path class="ql-fill" d="M16.65186,12.30664a2.6742,2.6742,0,0,1-2.915,2.68457,3.96592,3.96592,0,0,1-2.25537-.6709.56007.56007,0,0,1-.13232-.83594L11.64648,13c.209-.34082.48389-.36328.82471-.1543a2.32654,2.32654,0,0,0,1.12256.33008c.71484,0,1.12207-.35156,1.12207-.78125,0-.61523-.61621-.86816-1.46338-.86816H13.2085a.65159.65159,0,0,1-.68213-.41895l-.05518-.10937a.67114.67114,0,0,1,.14307-.78125l.71533-.86914a8.55289,8.55289,0,0,1,.68213-.7373V8.58887a3.93913,3.93913,0,0,1-.748.05469H11.9873a.54085.54085,0,0,1-.605-.60547V7.59863a.54085.54085,0,0,1,.605-.60547h3.75146a.53773.53773,0,0,1,.60547.59375v.17676a1.03723,1.03723,0,0,1-.27539.748L14.74854,10.0293A2.31132,2.31132,0,0,1,16.65186,12.30664ZM9,3A.99974.99974,0,0,0,8,4V8H3V4A1,1,0,0,0,1,4V14a1,1,0,0,0,2,0V10H8v4a1,1,0,0,0,2,0V4A.99974.99974,0,0,0,9,3Z"/>
</svg>

<svg viewBox="0 0 18 18"><path class="ql-fill" d="M16.652 12.307a2.674 2.674 0 0 1-2.915 2.684 3.966 3.966 0 0 1-2.256-.67.56.56 0 0 1-.132-.837l.297-.484c.21-.34.484-.363.825-.154a2.327 2.327 0 0 0 1.123.33c.715 0 1.122-.352 1.122-.781 0-.616-.616-.869-1.464-.869h-.043a.652.652 0 0 1-.683-.419l-.055-.109a.671.671 0 0 1 .143-.781l.716-.87a8.553 8.553 0 0 1 .682-.737V8.59a3.94 3.94 0 0 1-.748.055h-1.277a.54.54 0 0 1-.605-.606v-.44a.54.54 0 0 1 .605-.605h3.752a.538.538 0 0 1 .605.594v.177a1.037 1.037 0 0 1-.275.748l-1.32 1.517a2.311 2.311 0 0 1 1.903 2.278zM9 3a1 1 0 0 0-1 1v4H3V4a1 1 0 0 0-2 0v10a1 1 0 0 0 2 0v-4h5v4a1 1 0 0 0 2 0V4a1 1 0 0 0-1-1z"/></svg>
